img/69d1f53200b2364767d20745d014dbf3.svg

<svg width="10" height="8" viewBox="0 0 10 8" fill="none" xmlns="http://www.w3.org/2000/svg">
<path d="M5.03906 6.73438C5.66406 6.17448 6.1263 5.7513 6.42578 5.46484C6.72526 5.17839 7.05078 4.83984 7.40234 4.44922C7.75391 4.05859 7.99479 3.71354 8.125 3.41406C8.26823 3.11458 8.33984 2.82161 8.33984 2.53516C8.33984 2.11849 8.19661 1.77344 7.91016 1.5C7.63672 1.22656 7.29167 1.08984 6.875 1.08984C6.54948 1.08984 6.24349 1.18099 5.95703 1.36328C5.68359 1.54557 5.49479 1.77995 5.39062 2.06641H4.60938C4.50521 1.77995 4.3099 1.54557 4.02344 1.36328C3.75 1.18099 3.45052 1.08984 3.125 1.08984C2.70833 1.08984 2.35677 1.22656 2.07031 1.5C1.79688 1.77344 1.66016 2.11849 1.66016 2.53516C1.66016 2.82161 1.72526 3.11458 1.85547 3.41406C1.9987 3.71354 2.24609 4.05859 2.59766 4.44922C2.94922 4.83984 3.27474 5.17839 3.57422 5.46484C3.8737 5.7513 4.33594 6.17448 4.96094 6.73438L5 6.77344L5.03906 6.73438ZM6.875 0.25C7.52604 0.25 8.06641 0.471354 8.49609 0.914062C8.9388 1.35677 9.16016 1.89714 9.16016 2.53516C9.16016 2.91276 9.08854 3.28385 8.94531 3.64844C8.80208 4 8.53516 4.39714 8.14453 4.83984C7.76693 5.28255 7.42188 5.65365 7.10938 5.95312C6.79688 6.2526 6.29557 6.71484 5.60547 7.33984L5 7.88672L4.39453 7.35938C3.49609 6.55208 2.84505 5.94661 2.44141 5.54297C2.05078 5.13932 1.6862 4.66406 1.34766 4.11719C1.00911 3.57031 0.839844 3.04297 0.839844 2.53516C0.839844 1.89714 1.05469 1.35677 1.48438 0.914062C1.92708 0.471354 2.47396 0.25 3.125 0.25C3.88021 0.25 4.50521 0.542969 5 1.12891C5.49479 0.542969 6.11979 0.25 6.875 0.25Z" fill="#1F2041" fill-opacity="0.25"/>
</svg>

<svg width="10" height="8" fill="none" xmlns="http://www.w3.org/2000/svg"><path d="M5.04 6.734c.624-.56 1.086-.983 1.386-1.27.3-.286.625-.624.976-1.015.352-.39.593-.735.723-1.035.143-.3.215-.592.215-.879A1.37 1.37 0 007.91 1.5c-.273-.273-.618-.41-1.035-.41a1.68 1.68 0 00-.918.273 1.415 1.415 0 00-.566.703h-.782c-.104-.286-.3-.52-.586-.703a1.586 1.586 0 00-.898-.273 1.47 1.47 0 00-1.055.41c-.273.273-.41.618-.41 1.035 0 .287.065.58.195.88.144.299.391.644.743 1.034.351.39.677.73.976 1.016.3.286.762.71 1.387 1.27L5 6.772l.04-.039zM6.874.25c.651 0 1.191.221 1.621.664.443.443.664.983.664 1.621a3 3 0 01-.215 1.113c-.143.352-.41.75-.8 1.192-.378.443-.723.814-1.036 1.113-.312.3-.813.762-1.504 1.387L5 7.887l-.605-.528A55.478 55.478 0 012.44 5.543a8.39 8.39 0 01-1.093-1.426C1.009 3.57.84 3.043.84 2.535c0-.638.215-1.178.644-1.62C1.927.47 2.474.25 3.125.25c.755 0 1.38.293 1.875.879C5.495.543 6.12.25 6.875.25z" fill="#1F2041" fill-opacity=".25"/></svg>
